X:1
T:Title
%%score { ( 1 4 5 ) | ( 2 3 ) }
L:1/8
Q:1/4=100
M:6/8
K:Ab
V:1 treble nm="Grand Piano"
V:4 treble 
V:5 treble 
V:2 bass 
V:3 bass 
V:1
 c3 B2 A | c3- c2 B | [FA]G[DFA] .[DFB]2 [A,DF] | [E,_C=D]3 .[E,=CE]3 | [A,CE]3 E2 E | A3- A2 B | %6
w: Adam~Geibel * *||||||
 [Ec]2 [Ec] cB[=DA] | B6 | [Cc]3 [DB]2 [DA] | [Cc]3- [Cc]2 [CB] | AGA BAF | [_C=D]3 .[=CE]3 | %12
w: ||||||
 c3 =d2 d | e=de cBA | G3 [=DF]3 | E6 | z3 d3[K:bass] | z[K:treble] dd [Gd]3 | z3 d3 | z cc c3 | %20
w: ||||||||
 z3 c3 | z3 c3[K:bass] | z[K:treble] =dd [ABd]3 | [GBe]ee eee | z DD z FG | A3 z3 | .B6 | c6 | %28
w: ||||||||
 .f6 | [Fd]2 F [Fc]2 [FB] | [EA]3 [Ae]3 | [EGc]3- [EGc]2 [DGB] | [CEA]6 |] %33
w: |||||
V:2
 [A,CE]3 [A,D=E]2 [A,DE] | [A,CE]3- [A,CE]2 [A,C=E] | z =ED, z AD, | A,,3 .A,,3 | %4
 A,,3 [E,G,B,]2 [E,G,D] | [F,A,C]3- [F,A,C]2 [E,G,E] | [A,,A,]2 [A,,A,] [B,,A,]2 [B,,F,] | %7
 .D3 z2 D | [A,,E,]3 [A,,=E,]2 [A,,E,] | [A,,E,]3- [A,,E,]2 [A,,=E,] | %10
 [D,F,D]2 [D,F,D] [D,F,D]2 [D,A,D] | [A,,A,]3 .[A,,A,]3 | [A,CE]3 [A,_CF]2 [A,CF] | %13
 [G,B,E]2 [G,B,E][K:bass] [A,E]2 [F,CF] | [B,E]3 [B,,A,]3 | [E,G,]6 | z[K:treble] [EG][EG] [EG]3 | %17
 z [EG][EG] [E,E]3 | z [EG][EG] [EG]3 | z [EA][EA] [EA]3 | z [=EB][EB] [EB]3 | z [FA][FA] [FA]3 | %22
 z [AB][B,AB][K:bass] A,G,F, | z EE EEE | E,,[E,G,][E,G,] [E,G,]3 | A,,[E,A,][E,A,] [E,A,C]3 | %26
 z F,F, F,3 | z [=E,G,][E,G,] .[E,G,]3 | F3- [F,F]2 [F,=A,F] | [B,,B,]3 [C,=A,]2 [D,B,] | %30
 [E,C]3 [E,C]3 | E,3- E,2 E, | A,,6 |] %33
V:3
 x6 | x6 | .[D,D]3 .D,3 | x6 | x6 | x6 | x6 | [E,G,]6 | x6 | x6 | x6 | x6 | x6 | x3[K:bass] x3 | %14
 x6 | x6 | x[K:treble] x5 | x6 | x6 | x6 | x6 | x6 | x3[K:bass] x3 | E,3 z3 | x6 | x6 | D,6 | C,6 | %28
 [F,=A,]3 z3 | x6 | x6 | x6 | x6 |] %33
V:4
 x6 | x6 | x6 | x6 | x6 | x6 | z3 .=D3 | z2 F E2 _c | x6 | x6 | x6 | x6 | x6 | x6 | x6 | x6 | %16
 z dd z[K:bass] F,G, | A,3[K:treble] z3 | z dd z A,B, | C6 | z cc z G,B, | z cc z[K:bass] G,F, | %22
 .B,3[K:treble] z3 | x6 | .E6 | z CC E3 | z B,B, z AB | z CC .C3 | z3 z ce | x6 | x6 | x6 | x6 |] %33
V:5
 x6 | x6 | x6 | x6 | x6 | x6 | x6 | x6 | x6 | x6 | x6 | x6 | x6 | x6 | x6 | x6 | .E,6[K:bass] | %17
 x[K:treble] x5 | .B,6 | x6 | .C6 | .A,6[K:bass] | x[K:treble] x5 | x6 | z3 D3 | x6 | z3 B,3 | x6 | %28
 z3 .=A,3 | x6 | x6 | x6 | x6 |] %33

